X:1
T: Running Brook
R: reel
C: Rick Gagne
N: 1988 on whistle
M: 4/4
Q: 1/4=175
K: D
"D"DF~F2 FGAF | dFAF "Bm"BFAF | "D"DF~F2 FGAF | dFAF "G"B2cd |
"Bm"f2fe dedB | "D"AF~F2 DFAd | "Em"g2gf efed |1 "A"cABG AFGE :|\
[2 "A"cABG A2Ac ||
"A"eA~A2 eAfA | gAfA eA~A2 | "D"dF~F2 AFdF | AFdF AFdF |
"A"eA~A2 eAfA | gAfA eA~A2 | "Bm"fage "G"dBAG |1 "A"FAGE "D"dAfA :|\
[2 "A"FAGE FAEA ||
